X:772
T:One more Dance and Then
C:John Johnson, 1758
M:4/4
R:Reel
L:1/8
S:Colin Hume's website,  colinhume.com  - chords can also be printed below the stave.
Q:1/4=96
%%MIDI gchord fzczfzczfzczfzcz
%%MIDI ratio 3 1
%%MIDI chordprog 57   Trombone
%%MIDI program 57     Trombone
%%MIDI bassprog 58    Tuba
K:A
P:A
|: c/d/ | "A"efec "F#m"a2 cd | "A"e>f"F#m"ec "Bm"dB-"E7"Bc/d/ |\
"A"e>fec "F#m"agfe | "Bm"fedc "E7"B3 :|
P:B
|: B/c/ | "E7"dB gd bdcB | "A"cAec acBA |\
"Bm"BAGF "E"EDCB, | "D"A,d"E7"cB "A"{B}A3 :|

